img/upload.svg

<svg fill="none" height="33" viewBox="0 0 32 33" width="32" xmlns="http://www.w3.org/2000/svg" xmlns:xlink="http://www.w3.org/1999/xlink"><radialGradient id="a" cx="0" cy="0" gradientTransform="matrix(20.00002596 16.56669682 -16.50826433 19.92948375 5.66667 9.1)" gradientUnits="userSpaceOnUse" r="1"><stop offset="0" stop-color="#51c276"/><stop offset=".40625" stop-color="#47a99d"/><stop offset="1" stop-color="#3783d7"/></radialGradient><path d="m17.3337 25.833v-5.3333h4l-5.3334-6.6667-5.3333 6.6667h4v5.3333z" fill="#1c8aa9"/><path d="m9.66667 25.6667h2.66663v-2.6667h-2.66663c-2.20534 0-4-1.7947-4-4 0-1.872 1.59866-3.6747 3.564-4.02l.77463-.136.256-.744c.9374-2.7347 3.2654-4.43333 6.072-4.43333 3.676 0 6.6667 2.99063 6.6667 6.66663v1.3334h1.3333c1.4707 0 2.6667 1.196 2.6667 2.6666 0 1.4707-1.196 2.6667-2.6667 2.6667h-4v2.6667h4c2.9414 0 5.3334-2.392 5.3334-5.3334-.0021-1.1952-.4045-2.3552-1.1431-3.2949-.7386-.9396-1.7707-1.6047-2.9316-1.8891-.5827-4.5893-4.512-8.1493-9.2587-8.1493-3.6746 0-6.86663 2.148-8.32397 5.5333-2.864.856-5.00933 3.56-5.00933 6.4667 0 3.676 2.99067 6.6667 6.66667 6.6667z" fill="url(#a)"/></svg>

<svg width="32" height="33" viewBox="0 0 32 33" fill="none" xmlns="http://www.w3.org/2000/svg">
<path d="M17.3337 25.833V20.4997H21.3337L16.0003 13.833L10.667 20.4997H14.667V25.833H17.3337Z" fill="#1C8AA9"/>
<path d="M9.66667 25.6667H12.3333V23H9.66667C7.46133 23 5.66667 21.2053 5.66667 19C5.66667 17.128 7.26533 15.3253 9.23067 14.98L10.0053 14.844L10.2613 14.1C11.1987 11.3653 13.5267 9.66667 16.3333 9.66667C20.0093 9.66667 23 12.6573 23 16.3333V17.6667H24.3333C25.804 17.6667 27 18.8627 27 20.3333C27 21.804 25.804 23 24.3333 23H20.3333V25.6667H24.3333C27.2747 25.6667 29.6667 23.2747 29.6667 20.3333C29.6646 19.1381 29.2622 17.9781 28.5236 17.0384C27.785 16.0988 26.7529 15.4337 25.592 15.1493C25.0093 10.56 21.08 7 16.3333 7C12.6587 7 9.46667 9.148 8.00933 12.5333C5.14533 13.3893 3 16.0933 3 19C3 22.676 5.99067 25.6667 9.66667 25.6667Z" fill="url(#paint0_radial_9833_49801)"/>
<defs>
<radialGradient id="paint0_radial_9833_49801" cx="0" cy="0" r="1" gradientUnits="userSpaceOnUse" gradientTransform="translate(5.66667 9.1) rotate(39.6361) scale(25.9703 25.8787)">
<stop stop-color="#51C276"/>
<stop offset="0.40625" stop-color="#47A99D"/>
<stop offset="1" stop-color="#3783D7"/>
</radialGradient>
</defs>
</svg>
